X:1
T:Siciliano (MӮller)
T:Siciliano (MӮller)
T:August Eberhardt MӮller (1767-1817)
T:by Mutopia-2013/01/08-208 - public domain
C:August Eberhardt MӮller (1767-1817)
Z:by Mutopia-2013/01/08-208 - public domain
%%score { ( 1 3 ) | ( 2 4 ) }
L:1/8
Q:1/4=84
M:6/8
K:C
V:1 treble nm="Piano" snm="Pno."
V:3 treble 
V:2 bass 
V:4 bass 
V:1
!p! (c>dc) B2 (B | A>BA ^G2) (G |!<(! A2 c B2) [^Ge]!<)! |!>(! [Bd]2 [Ac] [^GB]2 z!>)! | %4
!mf! (c>dc B2) (B | A>BA ^G2) (G |!<(! A2 c d2 f)!<)! | B>A[FB]!f! c2 z :|!p! (e>fe g2) g | %9
 (^c>B[Gc] d2 A) |!<(! (d>ed f2) f!<)! |!>(! (f>gf e2 (d)!>)! |!p! c>dc B2) (B | A>BA ^G2) (G | %14
!<(! A2 c B2) ([^Ge]!<)! |!>(! [Bd]2 [Ac] [^GB]2)!>)! z |!mf! (c>dc B2) (B | A>BA ^G2) (G | %18
"_cresc." A2 c d2 ^d | e2) e!f! A2 z |!p! ^g>a[dg] a2 z |!mf! e2 e A2 z |] %22
V:2
 (.[A,E]2 .[A,E]) (.[DE]2 .[DE]) | [CE]2 [CE] [B,DE]2 [B,DE] | [CE]2 [A,E] [^G,E]2 (E, | %3
 A,2 ^D, E,2 E,,) | [A,E]2 [A,E] [DE]2 [DE] | [CE]2 [CE] [B,DE]2 [B,DE] | [CE]2 (A, F,2 D, | %7
 G,2 G,, C,2 C,,) :| z2 z [CE]2 [_B,D] | [A,E]2 [A,E] D2 z | z2 z [=B,D]2 [B,D] | D2 D B,2 E | %12
 [A,E]2 [A,E] [DE]2 [DE] | [CE]2 [CE] [B,DE]2 [B,DE] | [CE]2 [A,E] [^G,E]2 E, | A,2 ^D, E,2 E,, | %16
 [A,E]2 [A,E] [DE]2 [DE] | [CE]2 [CE] [B,DE]2 [B,DE] | [CE]2 A, F,2 F, | ([E,C]2 [E,B,] A,2) z | %20
[K:treble] [EB]2 [EB] .A3 |[K:bass] [E,D]2 [E,D] [A,C]2 z |] %22
V:3
 x6 | x6 | x6 | x6 | x6 | x6 | x6 | F3 E2 x :| x6 | G3 F3 | x6 | x6 | x6 | x6 | x6 | x6 | x6 | x6 | %18
 x3 A3 | A2 ^G A2 x | d3 c2 x | (^G>AG .A2) x |] %22
V:4
 x6 | x6 | x6 | x6 | x6 | x6 | x6 | x6 :| x6 | x6 | x6 | A,2 A, ^G,3 | x6 | x6 | x6 | x6 | x6 | %17
 x6 | x6 | x6 |[K:treble] x6 |[K:bass] x6 |] %22

